out/images/pinterestLogo.svg

<svg fill="none" height="25" viewBox="0 0 19 25" width="19" xmlns="http://www.w3.org/2000/svg"><path d="m9.96094.466797c-5.0293 0-9.96094 3.320313-9.96094 8.740233 0 3.41797 1.9043 5.37107 3.07617 5.37107.48828 0 .78125-1.3183.78125-1.709 0-.4394-1.17187-1.416-1.17187-3.32027 0-3.90625 2.97851-6.68945 6.83593-6.68945 3.36912 0 5.81052 1.90429 5.81052 5.37109 0 2.58793-1.0254 7.42183-4.3945 7.42183-1.2207 0-2.29492-.8789-2.29492-2.0996 0-1.8554 1.31836-3.66208 1.31836-5.56637 0-3.22266-4.58985-2.63672-4.58985 1.26953 0 .83004.09766 1.70894.48829 2.49024-.6836 2.8809-2.05079 7.2266-2.05079 10.2051 0 .9277.09766 1.8066.19532 2.7343.14648.1954.09765.1954.34179.0977 2.44141-3.3691 2.39258-4.0527 3.4668-8.4473.63477 1.1231 2.14844 1.7579 3.418 1.7579 5.1757 0 7.5195-5.0782 7.5195-9.61919 0-4.83399-4.1992-8.007813-8.78906-8.007813z" fill="#fff"/></svg>

<svg width="19" height="25" viewBox="0 0 19 25" fill="none" xmlns="http://www.w3.org/2000/svg">
<path d="M9.96094 0.466797C4.93164 0.466797 0 3.78711 0 9.20703C0 12.625 1.9043 14.5781 3.07617 14.5781C3.56445 14.5781 3.85742 13.2598 3.85742 12.8691C3.85742 12.4297 2.68555 11.4531 2.68555 9.54883C2.68555 5.64258 5.66406 2.85938 9.52148 2.85938C12.8906 2.85938 15.332 4.76367 15.332 8.23047C15.332 10.8184 14.3066 15.6523 10.9375 15.6523C9.7168 15.6523 8.64258 14.7734 8.64258 13.5527C8.64258 11.6973 9.96094 9.89062 9.96094 7.98633C9.96094 4.76367 5.37109 5.34961 5.37109 9.25586C5.37109 10.0859 5.46875 10.9648 5.85938 11.7461C5.17578 14.627 3.80859 18.9727 3.80859 21.9512C3.80859 22.8789 3.90625 23.7578 4.00391 24.6855C4.15039 24.8809 4.10156 24.8809 4.3457 24.7832C6.78711 21.4141 6.73828 20.7305 7.8125 16.3359C8.44727 17.459 9.96094 18.0938 11.2305 18.0938C16.4062 18.0938 18.75 13.0156 18.75 8.47461C18.75 3.64062 14.5508 0.466797 9.96094 0.466797Z" fill="white"/>
</svg>
